!!!COM: Corelli, Arcangelo
!!!OPR: Sonata da camera
!!!OPS: 4
!!!ONM: 10
!!!OMV: 4
!!!OMD: Grave
**kern	**fb	**kern	**kern
*part4	*part4	*part2	*part1
*staff4	*	*staff2	*staff1
*I"Violone & Cembalo	*	*I"Violino II	*I"Violino I
*clefF4	*	*clefG2	*clefG2
*k[]	*	*k[]	*k[]
*e:	*	*e:	*e:
*M4/4	*	*M4/4	*M4/4
*met(c)	*	*met(c)	*met(c)
*MM34	*	*MM34	*MM34
=1	=1	=1	=1
2.E	5	1r	2.r
.	4 #2\	.	.
4D	6	.	[4b
=2	=2	=2	=2
2C	7	4r	4b]
.	6	2ee	4a
2BB	6 4	.	4g
.	#5\ 3	4dd	[4bb
=3	=3	=3	=3
*G:	*	*G:	*G:
4E	6 5	2cc	4bb]
4F#X	5	.	2aa
4G	9	4b	.
4GG	.	4bb	[4gg
=4	=4	=4	=4
*e:	*	*e:	*e:
4D	5 4	2aa	4gg]
4D#X	5	.	2ff#X
4E	9	2gg	.
[4e	8	.	4ee
=5	=5	=5	=5
*b:	*	*b:	*b:
4e]	#4\ #2\	4ff#X	4a#X
8dniL	6	8ff#L	2b
8eJ	.	8ggJ	.
4f#X	6 4	4dd	.
4F#X	#5\ #	4cc#X	4a#
=6	=6	=6	=6
4.G	5	4b	4b
.	6	4r	2ee
8A	.	.	.
4.B	#5\ 4	2ff#X	.
.	-r3	.	[4dd
8A	.	.	.
=7	=7	=7	=7
*a:	*	*a:	*a:
8G#XL	6 5	2ee	4dd]
8EJ	.	.	.
2A	3	.	4cc
.	4 2	2dd	[2b
4G#	5	.	.
=8	=8	=8	=8
8AL	9	2cc	8bL]
8AA	.	.	8eJ
8C	6	.	2a
8DJ	.	.	.
4.E	5 4	4b	.
.	-r3	[4ee	4g
8E	.	.	.
=9	=9	=9	=9
*C:	*	*C:	*C:
4A	6 5	4ee]	2f
4B	5	2dd	.
4c	9	.	4e
4E	6	4cc	4gg
=10	=10	=10	=10
4F	.	8aL	4aa
.	.	8bJ	.
8EL	6	2cc	8ggL
8FJ	.	.	8aaJ
4G	6 4	.	4ee
*a:	*	*a:	*a:
4G#X	-r5	[4b	4dd
=11	=11	=11	=11
4.A	9	8bL]	4.cc
.	.	8eJ	.
.	8	2a	.
8A	.	.	8cc
*e:	*	*e:	*e:
4D#X	6 5	.	4.b
4E	.	4g	.
.	.	.	8b
=12	=12	=12	=12
4AA	#6\	8f#XL	4a
.	.	8d#XJ	.
4AA#X	-7 5	2e	8gL
.	.	.	8f#XJ
2BB	6 4	.	4g
.	5 #	4d#	4f#
=13	=13	=13	=13
4E	.	4e	4e
4r	.	4r	4r
4D	6 #	4f#X	4b
4r	.	4r	4r
=14	=14	=14	=14
4C	6	4e	4a
4r	.	4r	4r
2BB	#	2d#X	2b
==	==	==	==
*-	*-	*-	*-
!!!system-decoration: [{s1,s2},s3,s4]
!!!YEM: CC BY-NC-SA 4.0; CCARH; DCML
!!!RDF**kern: i = editorial accidental